packages/icons/svg/24/ItemRemove.svg

<svg width="24" height="24" viewBox="0 0 24 24" fill="none" xmlns="http://www.w3.org/2000/svg">
<path fill-rule="evenodd" clip-rule="evenodd" d="M10.6952 2.08447C11.1227 2.02871 11.5582 2 12 2C12.4418 2 12.8773 2.02871 13.3048 2.08447C13.8525 2.15591 14.2385 2.65777 14.1671 3.20542C14.0956 3.75306 13.5938 4.13911 13.0461 4.06767C12.7042 4.02307 12.355 4 12 4C11.645 4 11.2958 4.02307 10.9539 4.06767C10.4062 4.13911 9.90435 3.75306 9.83292 3.20542C9.76148 2.65777 10.1475 2.15591 10.6952 2.08447ZM7.31386 4.25008C7.65038 4.688 7.56819 5.3158 7.13027 5.65232C6.57571 6.07848 6.07848 6.57571 5.65232 7.13027C5.3158 7.56819 4.688 7.65038 4.25008 7.31386C3.81216 6.97734 3.72996 6.34953 4.06649 5.91162C4.59856 5.21922 5.21922 4.59856 5.91162 4.06649C6.34953 3.72996 6.97734 3.81216 7.31386 4.25008ZM16.6861 4.25008C17.0227 3.81216 17.6505 3.72996 18.0884 4.06649C18.7808 4.59856 19.4014 5.21922 19.9335 5.91162C20.27 6.34953 20.1878 6.97734 19.7499 7.31386C19.312 7.65038 18.6842 7.56819 18.3477 7.13027C17.9215 6.57571 17.4243 6.07848 16.8697 5.65232C16.4318 5.3158 16.3496 4.688 16.6861 4.25008ZM3.20542 9.83292C3.75306 9.90435 4.13911 10.4062 4.06767 10.9539C4.02307 11.2958 4 11.645 4 12C4 12.355 4.02307 12.7042 4.06767 13.0461C4.13911 13.5938 3.75306 14.0956 3.20542 14.1671C2.65777 14.2385 2.15591 13.8525 2.08447 13.3048C2.02871 12.8773 2 12.4418 2 12C2 11.5582 2.02871 11.1227 2.08447 10.6952C2.15591 10.1475 2.65777 9.76148 3.20542 9.83292ZM20.7946 9.83292C21.3422 9.76148 21.8441 10.1475 21.9155 10.6952C21.9713 11.1227 22 11.5582 22 12C22 12.4418 21.9713 12.8773 21.9155 13.3048C21.8441 13.8525 21.3422 14.2385 20.7946 14.1671C20.2469 14.0956 19.8609 13.5938 19.9323 13.0461C19.9769 12.7042 20 12.355 20 12C20 11.645 19.9769 11.2958 19.9323 10.9539C19.8609 10.4062 20.2469 9.90435 20.7946 9.83292ZM4.25008 16.6861C4.688 16.3496 5.3158 16.4318 5.65232 16.8697C6.07848 17.4243 6.57571 17.9215 7.13027 18.3477C7.56819 18.6842 7.65038 19.312 7.31386 19.7499C6.97734 20.1878 6.34953 20.27 5.91162 19.9335C5.21922 19.4014 4.59856 18.7808 4.06649 18.0884C3.72996 17.6505 3.81216 17.0227 4.25008 16.6861ZM19.7499 16.6861C20.1878 17.0227 20.27 17.6505 19.9335 18.0884C19.4014 18.7808 18.7808 19.4014 18.0884 19.9335C17.6505 20.27 17.0227 20.1878 16.6861 19.7499C16.3496 19.312 16.4318 18.6842 16.8697 18.3477C17.4243 17.9215 17.9215 17.4243 18.3477 16.8697C18.6842 16.4318 19.312 16.3496 19.7499 16.6861ZM9.83292 20.7946C9.90435 20.2469 10.4062 19.8609 10.9539 19.9323C11.2958 19.9769 11.645 20 12 20C12.355 20 12.7042 19.9769 13.0461 19.9323C13.5938 19.8609 14.0956 20.2469 14.1671 20.7946C14.2385 21.3422 13.8525 21.8441 13.3048 21.9155C12.8773 21.9713 12.4418 22 12 22C11.5582 22 11.1227 21.9713 10.6952 21.9155C10.1475 21.8441 9.76148 21.3422 9.83292 20.7946Z" fill="#858585"/>
</svg>

<svg width="24" height="24" fill="none" xmlns="http://www.w3.org/2000/svg" viewBox="0 0 24 24"><path fill-rule="evenodd" clip-rule="evenodd" d="M10.695 2.084a10.085 10.085 0 012.61 0 1 1 0 11-.259 1.984 8.085 8.085 0 00-2.092 0 1 1 0 11-.259-1.984zM7.314 4.25a1 1 0 01-.184 1.402A8.054 8.054 0 005.652 7.13a1 1 0 11-1.586-1.218 10.052 10.052 0 011.846-1.846 1 1 0 011.402.184zm9.372 0a1 1 0 011.402-.184 10.053 10.053 0 011.845 1.846 1 1 0 01-1.585 1.218 8.054 8.054 0 00-1.478-1.478 1 1 0 01-.184-1.402zM3.206 9.833a1 1 0 01.862 1.12 8.085 8.085 0 000 2.093 1 1 0 01-1.984.259 10.085 10.085 0 010-2.61 1 1 0 011.121-.862zm17.589 0a1 1 0 011.12.862 10.077 10.077 0 010 2.61 1 1 0 11-1.983-.259 8.085 8.085 0 000-2.092 1 1 0 01.863-1.121zM4.25 16.686a1 1 0 011.402.184 8.054 8.054 0 001.478 1.478 1 1 0 11-1.218 1.585 10.053 10.053 0 01-1.846-1.845 1 1 0 01.184-1.402zm15.5 0a1 1 0 01.183 1.402 10.054 10.054 0 01-1.845 1.845 1 1 0 01-1.218-1.585 8.054 8.054 0 001.478-1.478 1 1 0 011.402-.184zm-9.917 4.109a1 1 0 011.12-.863 8.085 8.085 0 002.093 0 1 1 0 01.259 1.984 10.077 10.077 0 01-2.61 0 1 1 0 01-.862-1.121z" fill="currentColor"></path></svg>
